src/images/course.svg

<svg viewBox="0 0 32 32" xmlns="http://www.w3.org/2000/svg" fill-rule="evenodd" clip-rule="evenodd" stroke-linecap="round"><path d="M4.716 14.013h22.328v1.653a7.5 7.5 0 01-7.5 7.5h-7.328a7.5 7.5 0 01-7.5-7.5v-1.653z" fill="url(#a)" fill-rule="nonzero"/><path d="M15.289 20.399L2.6 13.917a1.1 1.1 0 01.002-1.96L15.29 5.512a1.303 1.303 0 011.179 0l12.689 6.459a1.1 1.1 0 01.001 1.961L16.471 20.4a1.3 1.3 0 01-1.182-.001z" fill="url(#b)" fill-rule="nonzero"/><path d="M16.419 19.263l12.469-6.594" fill="none" stroke="url(#c)" stroke-width="0.7px"/><path d="M23.137 17.325l-1.407.717v-.5c0-.667-.087-1.168-.945-1.581l-5.573-2.914a.734.734 0 01-.309-.975.698.698 0 01.951-.316l5.574 2.913a3.23 3.23 0 011.709 2.656z" fill="url(#d)" fill-rule="nonzero"/><path d="M23.646 16.742l-1.407.717v-.5c0-.667-.087-1.168-.945-1.581l-5.574-2.914a.733.733 0 01-.308-.975.7.7 0 01.951-.317l5.573 2.914a3.228 3.228 0 011.71 2.656z" fill="url(#e)" fill-rule="nonzero"/><path d="M15.414 11.168a.725.725 0 01.975-.316l5.714 2.913a3.226 3.226 0 011.76 2.873v5.844a.726.726 0 01-1.45 0v-5.844c0-.667-.375-1.278-.969-1.581l-5.714-2.913a.725.725 0 01-.316-.976z" fill="url(#f)"/><path d="M15.414 11.168a.725.725 0 01.975-.316l5.714 2.913a3.226 3.226 0 011.76 2.873v5.844a.726.726 0 01-1.45 0v-5.844c0-.667-.375-1.278-.969-1.581l-5.714-2.913a.725.725 0 01-.316-.976z" fill="url(#g)"/><path d="M15.414 11.168a.725.725 0 01.975-.316l5.714 2.913a3.226 3.226 0 011.76 2.873v5.844a.726.726 0 01-1.45 0v-5.844c0-.667-.375-1.278-.969-1.581l-5.714-2.913a.725.725 0 01-.316-.976z" fill="url(#h)"/><path d="M15.414 11.168a.725.725 0 01.975-.316l5.714 2.913a3.226 3.226 0 011.76 2.873v5.844a.726.726 0 01-1.45 0v-5.844c0-.667-.375-1.278-.969-1.581l-5.714-2.913a.725.725 0 01-.316-.976z" fill="url(#i)"/><path d="M22.419 22.474c-.649.266-.949.823-.949 1.43a1.668 1.668 0 103.335 0c0-.607-.355-1.149-.941-1.43h-1.445z" fill="url(#j)" fill-rule="nonzero"/><path d="M22.419 22.474c-.649.266-.949.823-.949 1.43a1.668 1.668 0 103.335 0c0-.607-.355-1.149-.941-1.43h-1.445z" fill="url(#k)" fill-rule="nonzero"/><path d="M22.419 22.474c-.649.266-.949.823-.949 1.43a1.668 1.668 0 103.335 0c0-.607-.355-1.149-.941-1.43h-1.445z" fill="url(#l)" fill-rule="nonzero"/><path d="M21.226 27.647l.638-2.649h2.527l.652 2.626a1.992 1.992 0 11-3.817.023z" fill="rgb(255,157,78)" fill-rule="nonzero"/><path d="M21.226 27.647l.638-2.649h2.527l.652 2.626a1.992 1.992 0 11-3.817.023z" fill="url(#m)" fill-rule="nonzero"/><path d="M21.226 27.647l.638-2.649h2.527l.652 2.626a1.992 1.992 0 11-3.817.023z" fill="url(#n)" fill-rule="nonzero"/><path d="M21.226 27.647l.638-2.649h2.527l.652 2.626a1.992 1.992 0 11-3.817.023z" fill="url(#o)" fill-rule="nonzero"/><defs><linearGradient id="a" x1="0" y1="0" x2="1" y2="0" gradientUnits="userSpaceOnUse" gradientTransform="matrix(-20 0 0 -20 25.95 18.59)"><stop offset="0" stop-color="rgb(104,81,139)"/><stop offset="0" stop-color="rgb(104,81,139)"/><stop offset=".44" stop-color="rgb(80,54,120)"/><stop offset=".91" stop-color="rgb(53,37,78)"/><stop offset="1" stop-color="rgb(53,37,78)"/></linearGradient><linearGradient id="b" x1="0" y1="0" x2="1" y2="0" gradientUnits="userSpaceOnUse" gradientTransform="rotate(180 14.096 6.478) scale(20.9296)"><stop offset="0" stop-color="rgb(101,86,118)"/><stop offset="1" stop-color="rgb(45,38,53)"/></linearGradient><linearGradient id="c" x1="0" y1="0" x2="1" y2="0" gradientUnits="userSpaceOnUse" gradientTransform="matrix(12.1875 -7 7 12.1875 17.762 19.263)"><stop offset="0" stop-color="rgb(110,95,133)"/><stop offset="1" stop-color="rgb(154,141,167)"/></linearGradient><linearGradient id="d" x1="0" y1="0" x2="1" y2="0" gradientUnits="userSpaceOnUse" gradientTransform="scale(8.2876) rotate(39.289 -1.18 3.745)"><stop offset="0" stop-color="rgb(60,45,66)"/><stop offset="1" stop-color="rgb(61,44,67)" stop-opacity="0"/></linearGradient><linearGradient id="e" x1="0" y1="0" x2="1" y2="0" gradientUnits="userSpaceOnUse" gradientTransform="scale(6.7335) rotate(41.489 -1.222 4.282)"><stop offset="0" stop-color="rgb(44,26,32)"/><stop offset="1" stop-color="rgb(76,35,80)"/></linearGradient><linearGradient id="f" x1="0" y1="0" x2="1" y2="0" gradientUnits="userSpaceOnUse" gradientTransform="scale(13.4227) rotate(62.85 -.044 1.472)"><stop offset="0" stop-color="rgb(211,165,67)"/><stop offset="1" stop-color="rgb(255,186,98)"/></linearGradient><linearGradient id="h" x1="0" y1="0" x2="1" y2="0" gradientUnits="userSpaceOnUse" gradientTransform="matrix(-1.1971 .0898 -.0898 -1.1971 24.273 18.215)"><stop offset="0" stop-color="rgb(255,213,116)"/><stop offset="1" stop-color="rgb(255,213,116)" stop-opacity="0"/></linearGradient><linearGradient id="i" x1="0" y1="0" x2="1" y2="0" gradientUnits="userSpaceOnUse" gradientTransform="rotate(117.714 7.02 13.334) scale(.9973)"><stop offset="0" stop-color="rgb(255,213,116)"/><stop offset="1" stop-color="rgb(255,213,116)" stop-opacity="0"/></linearGradient><linearGradient id="m" x1="0" y1="0" x2="1" y2="0" gradientUnits="userSpaceOnUse" gradientTransform="rotate(9.256 -159.722 145.59) scale(1.5361)"><stop offset="0" stop-color="rgb(209,112,71)"/><stop offset="1" stop-color="rgb(209,112,71)" stop-opacity="0"/></linearGradient><radialGradient id="g" cx="0" cy="0" r="1" gradientUnits="userSpaceOnUse" gradientTransform="matrix(3.47163 1.76574 -1.10075 2.16418 15.684 10.463)"><stop offset="0" stop-color="rgb(208,167,69)"/><stop offset="1" stop-color="rgb(208,167,69)" stop-opacity="0"/></radialGradient><radialGradient id="j" cx="0" cy="0" r="1" gradientUnits="userSpaceOnUse" gradientTransform="matrix(-1.5263 1.40661 -1.51482 -1.64372 24.154 23.392)"><stop offset="0" stop-color="rgb(255,204,108)"/><stop offset="1" stop-color="rgb(244,144,65)"/></radialGradient><radialGradient id="k" cx="0" cy="0" r="1" gradientUnits="userSpaceOnUse" gradientTransform="matrix(-3.44037 -1.42864 1.14909 -2.76717 24.44 24.29)"><stop offset="0" stop-color="rgb(178,93,65)" stop-opacity="0"/><stop offset=".6" stop-color="rgb(178,93,65)" stop-opacity="0"/><stop offset=".91" stop-color="rgb(178,93,65)"/><stop offset="1" stop-color="rgb(178,93,65)"/></radialGradient><radialGradient id="l" cx="0" cy="0" r="1" gradientUnits="userSpaceOnUse" gradientTransform="matrix(2.24498 -.34987 .17007 1.09131 21.845 25.076)"><stop offset="0" stop-color="rgb(253,128,94)"/><stop offset="1" stop-color="rgb(253,128,94)" stop-opacity="0"/></radialGradient><radialGradient id="n" cx="0" cy="0" r="1" gradientUnits="userSpaceOnUse" gradientTransform="matrix(0 4.37335 -1.34116 0 24.09 24.727)"><stop offset="0" stop-color="rgb(255,188,110)"/><stop offset=".57" stop-color="rgb(255,188,110)"/><stop offset="1" stop-color="rgb(255,188,110)" stop-opacity="0"/></radialGradient><radialGradient id="o" cx="0" cy="0" r="1" gradientUnits="userSpaceOnUse" gradientTransform="matrix(.58311 -2.60156 3.00404 .67332 22.4 30.2)"><stop offset="0" stop-color="rgb(255,105,126)"/><stop offset=".17" stop-color="rgb(255,105,126)"/><stop offset="1" stop-color="rgb(255,105,126)" stop-opacity="0"/></radialGradient></defs></svg>

<svg width="100%" height="100%" viewBox="0 0 32 32" version="1.1" xmlns="http://www.w3.org/2000/svg" style="fill-rule:evenodd;clip-rule:evenodd;stroke-linecap:round;">
    <g>
        <path d="M4.716,14.013L27.044,14.013L27.044,15.666C27.044,19.808 23.686,23.166 19.544,23.166L12.216,23.166C8.073,23.166 4.716,19.808 4.716,15.666L4.716,14.013Z" style="fill:url(#_Linear1);fill-rule:nonzero;"/>
    </g>
    <g>
        <path d="M15.289,20.399L2.6,13.917C1.799,13.509 1.8,12.364 2.602,11.957L15.29,5.512C15.661,5.324 16.099,5.324 16.469,5.512L29.158,11.971C29.959,12.379 29.96,13.523 29.159,13.932L16.471,20.4C16.099,20.589 15.66,20.589 15.289,20.399Z" style="fill:url(#_Linear2);fill-rule:nonzero;"/>
    </g>
    <g>
        <path d="M16.419,19.263L28.888,12.669" style="fill:none;fill-rule:nonzero;stroke:url(#_Linear3);stroke-width:0.7px;"/>
    </g>
    <g>
        <path d="M23.137,17.325L21.73,18.042L21.73,17.542C21.73,16.875 21.643,16.374 20.785,15.961L15.212,13.047C14.864,12.865 14.726,12.429 14.903,12.072C15.08,11.715 15.506,11.574 15.854,11.756L21.428,14.669C22.418,15.187 23.063,16.198 23.137,17.325Z" style="fill:url(#_Linear4);fill-rule:nonzero;"/>
    </g>
    <g>
        <path d="M23.646,16.742L22.239,17.459L22.239,16.959C22.239,16.292 22.152,15.791 21.294,15.378L15.72,12.464C15.372,12.282 15.234,11.846 15.412,11.489C15.589,11.132 16.015,10.991 16.363,11.172L21.936,14.086C22.927,14.604 23.572,15.615 23.646,16.742Z" style="fill:url(#_Linear5);fill-rule:nonzero;"/>
    </g>
    <g>
        <path d="M15.414,11.168C15.595,10.812 16.032,10.67 16.389,10.852L22.103,13.765C23.183,14.316 23.863,15.426 23.863,16.638L23.863,22.482C23.863,22.882 23.538,23.207 23.138,23.207C22.737,23.207 22.413,22.882 22.413,22.482L22.413,16.638C22.413,15.971 22.038,15.36 21.444,15.057L15.73,12.144C15.373,11.962 15.232,11.525 15.414,11.168Z" style="fill:url(#_Linear6);"/>
    </g>
    <path d="M15.414,11.168C15.595,10.812 16.032,10.67 16.389,10.852L22.103,13.765C23.183,14.316 23.863,15.426 23.863,16.638L23.863,22.482C23.863,22.882 23.538,23.207 23.138,23.207C22.737,23.207 22.413,22.882 22.413,22.482L22.413,16.638C22.413,15.971 22.038,15.36 21.444,15.057L15.73,12.144C15.373,11.962 15.232,11.525 15.414,11.168Z" style="fill:url(#_Radial7);"/>
    <path d="M15.414,11.168C15.595,10.812 16.032,10.67 16.389,10.852L22.103,13.765C23.183,14.316 23.863,15.426 23.863,16.638L23.863,22.482C23.863,22.882 23.538,23.207 23.138,23.207C22.737,23.207 22.413,22.882 22.413,22.482L22.413,16.638C22.413,15.971 22.038,15.36 21.444,15.057L15.73,12.144C15.373,11.962 15.232,11.525 15.414,11.168Z" style="fill:url(#_Linear8);"/>
    <path d="M15.414,11.168C15.595,10.812 16.032,10.67 16.389,10.852L22.103,13.765C23.183,14.316 23.863,15.426 23.863,16.638L23.863,22.482C23.863,22.882 23.538,23.207 23.138,23.207C22.737,23.207 22.413,22.882 22.413,22.482L22.413,16.638C22.413,15.971 22.038,15.36 21.444,15.057L15.73,12.144C15.373,11.962 15.232,11.525 15.414,11.168Z" style="fill:url(#_Linear9);"/>
    <path d="M22.419,22.474C21.77,22.74 21.47,23.297 21.47,23.904C21.47,24.825 22.216,25.572 23.138,25.572C24.059,25.572 24.805,24.825 24.805,23.904C24.805,23.297 24.45,22.755 23.864,22.474L22.419,22.474Z" style="fill:url(#_Radial10);fill-rule:nonzero;"/>
    <path d="M22.419,22.474C21.77,22.74 21.47,23.297 21.47,23.904C21.47,24.825 22.216,25.572 23.138,25.572C24.059,25.572 24.805,24.825 24.805,23.904C24.805,23.297 24.45,22.755 23.864,22.474L22.419,22.474Z" style="fill:url(#_Radial11);fill-rule:nonzero;"/>
    <path d="M22.419,22.474C21.77,22.74 21.47,23.297 21.47,23.904C21.47,24.825 22.216,25.572 23.138,25.572C24.059,25.572 24.805,24.825 24.805,23.904C24.805,23.297 24.45,22.755 23.864,22.474L22.419,22.474Z" style="fill:url(#_Radial12);fill-rule:nonzero;"/>
    <path d="M21.226,27.647L21.864,24.998L24.391,24.998L25.043,27.624C25.099,27.809 25.13,28.005 25.13,28.209C25.13,29.309 24.238,30.201 23.138,30.201C22.037,30.201 21.145,29.309 21.145,28.209C21.145,28.013 21.173,27.825 21.226,27.647Z" style="fill:rgb(255,157,78);fill-rule:nonzero;"/>
    <path d="M21.226,27.647L21.864,24.998L24.391,24.998L25.043,27.624C25.099,27.809 25.13,28.005 25.13,28.209C25.13,29.309 24.238,30.201 23.138,30.201C22.037,30.201 21.145,29.309 21.145,28.209C21.145,28.013 21.173,27.825 21.226,27.647Z" style="fill:url(#_Linear13);fill-rule:nonzero;"/>
    <path d="M21.226,27.647L21.864,24.998L24.391,24.998L25.043,27.624C25.099,27.809 25.13,28.005 25.13,28.209C25.13,29.309 24.238,30.201 23.138,30.201C22.037,30.201 21.145,29.309 21.145,28.209C21.145,28.013 21.173,27.825 21.226,27.647Z" style="fill:url(#_Radial14);fill-rule:nonzero;"/>
    <path d="M21.226,27.647L21.864,24.998L24.391,24.998L25.043,27.624C25.099,27.809 25.13,28.005 25.13,28.209C25.13,29.309 24.238,30.201 23.138,30.201C22.037,30.201 21.145,29.309 21.145,28.209C21.145,28.013 21.173,27.825 21.226,27.647Z" style="fill:url(#_Radial15);fill-rule:nonzero;"/>
    <defs>
        <linearGradient id="_Linear1" x1="0" y1="0" x2="1" y2="0" gradientUnits="userSpaceOnUse" gradientTransform="matrix(-20,2.4493e-15,-2.4493e-15,-20,25.95,18.5894)"><stop offset="0" style="stop-color:rgb(104,81,139);stop-opacity:1"/><stop offset="0" style="stop-color:rgb(104,81,139);stop-opacity:1"/><stop offset="0.44" style="stop-color:rgb(80,54,120);stop-opacity:1"/><stop offset="0.91" style="stop-color:rgb(53,37,78);stop-opacity:1"/><stop offset="1" style="stop-color:rgb(53,37,78);stop-opacity:1"/></linearGradient>
        <linearGradient id="_Linear2" x1="0" y1="0" x2="1" y2="0" gradientUnits="userSpaceOnUse" gradientTransform="matrix(-20.9296,2.56314e-15,-2.56314e-15,-20.9296,28.1921,12.9561)"><stop offset="0" style="stop-color:rgb(101,86,118);stop-opacity:1"/><stop offset="1" style="stop-color:rgb(45,38,53);stop-opacity:1"/></linearGradient>
        <linearGradient id="_Linear3" x1="0" y1="0" x2="1" y2="0" gradientUnits="userSpaceOnUse" gradientTransform="matrix(12.1875,-7,7,12.1875,17.7625,19.2632)"><stop offset="0" style="stop-color:rgb(110,95,133);stop-opacity:1"/><stop offset="1" style="stop-color:rgb(154,141,167);stop-opacity:1"/></linearGradient>
        <linearGradient id="_Linear4" x1="0" y1="0" x2="1" y2="0" gradientUnits="userSpaceOnUse" gradientTransform="matrix(6.4143,5.248,-5.248,6.4143,17.4429,13.2102)"><stop offset="0" style="stop-color:rgb(60,45,66);stop-opacity:1"/><stop offset="1" style="stop-color:rgb(61,44,67);stop-opacity:0"/></linearGradient>
        <linearGradient id="_Linear5" x1="0" y1="0" x2="1" y2="0" gradientUnits="userSpaceOnUse" gradientTransform="matrix(5.0439,4.4608,-4.4608,5.0439,17.0348,12.6854)"><stop offset="0" style="stop-color:rgb(44,26,32);stop-opacity:1"/><stop offset="1" style="stop-color:rgb(76,35,80);stop-opacity:1"/></linearGradient>
        <linearGradient id="_Linear6" x1="0" y1="0" x2="1" y2="0" gradientUnits="userSpaceOnUse" gradientTransform="matrix(6.125,11.9438,-11.9438,6.125,17.2625,11.2632)"><stop offset="0" style="stop-color:rgb(211,165,67);stop-opacity:1"/><stop offset="1" style="stop-color:rgb(255,186,98);stop-opacity:1"/></linearGradient>
        <radialGradient id="_Radial7" cx="0" cy="0" r="1" gradientUnits="userSpaceOnUse" gradientTransform="matrix(3.47163,1.76574,-1.10075,2.16418,15.6842,10.4633)"><stop offset="0" style="stop-color:rgb(208,167,69);stop-opacity:1"/><stop offset="1" style="stop-color:rgb(208,167,69);stop-opacity:0"/></radialGradient>
        <linearGradient id="_Linear8" x1="0" y1="0" x2="1" y2="0" gradientUnits="userSpaceOnUse" gradientTransform="matrix(-1.1971,0.0898,-0.0898,-1.1971,24.2735,18.2146)"><stop offset="0" style="stop-color:rgb(255,213,116);stop-opacity:1"/><stop offset="1" style="stop-color:rgb(255,213,116);stop-opacity:0"/></linearGradient>
        <linearGradient id="_Linear9" x1="0" y1="0" x2="1" y2="0" gradientUnits="userSpaceOnUse" gradientTransform="matrix(-0.4638,0.8829,-0.8829,-0.4638,22.0887,13.3214)"><stop offset="0" style="stop-color:rgb(255,213,116);stop-opacity:1"/><stop offset="1" style="stop-color:rgb(255,213,116);stop-opacity:0"/></linearGradient>
        <radialGradient id="_Radial10" cx="0" cy="0" r="1" gradientUnits="userSpaceOnUse" gradientTransform="matrix(-1.5263,1.40661,-1.51482,-1.64372,24.1538,23.3921)"><stop offset="0" style="stop-color:rgb(255,204,108);stop-opacity:1"/><stop offset="1" style="stop-color:rgb(244,144,65);stop-opacity:1"/></radialGradient>
        <radialGradient id="_Radial11" cx="0" cy="0" r="1" gradientUnits="userSpaceOnUse" gradientTransform="matrix(-3.44037,-1.42864,1.14909,-2.76717,24.4403,24.2893)"><stop offset="0" style="stop-color:rgb(178,93,65);stop-opacity:0"/><stop offset="0.6" style="stop-color:rgb(178,93,65);stop-opacity:0"/><stop offset="0.91" style="stop-color:rgb(178,93,65);stop-opacity:1"/><stop offset="1" style="stop-color:rgb(178,93,65);stop-opacity:1"/></radialGradient>
        <radialGradient id="_Radial12" cx="0" cy="0" r="1" gradientUnits="userSpaceOnUse" gradientTransform="matrix(2.24498,-0.349867,0.170074,1.09131,21.8454,25.0765)"><stop offset="0" style="stop-color:rgb(253,128,94);stop-opacity:1"/><stop offset="1" style="stop-color:rgb(253,128,94);stop-opacity:0"/></radialGradient>
        <linearGradient id="_Linear13" x1="0" y1="0" x2="1" y2="0" gradientUnits="userSpaceOnUse" gradientTransform="matrix(1.5161,0.2472,-0.2472,1.5161,21.3498,27.5991)"><stop offset="0" style="stop-color:rgb(209,112,71);stop-opacity:1"/><stop offset="1" style="stop-color:rgb(209,112,71);stop-opacity:0"/></linearGradient>
        <radialGradient id="_Radial14" cx="0" cy="0" r="1" gradientUnits="userSpaceOnUse" gradientTransform="matrix(-1.67437e-15,4.37335,-1.34116,-5.13472e-16,24.0904,24.7266)"><stop offset="0" style="stop-color:rgb(255,188,110);stop-opacity:1"/><stop offset="0.57" style="stop-color:rgb(255,188,110);stop-opacity:1"/><stop offset="1" style="stop-color:rgb(255,188,110);stop-opacity:0"/></radialGradient>
        <radialGradient id="_Radial15" cx="0" cy="0" r="1" gradientUnits="userSpaceOnUse" gradientTransform="matrix(0.583111,-2.60156,3.00404,0.673321,22.3994,30.2007)"><stop offset="0" style="stop-color:rgb(255,105,126);stop-opacity:1"/><stop offset="0.17" style="stop-color:rgb(255,105,126);stop-opacity:1"/><stop offset="1" style="stop-color:rgb(255,105,126);stop-opacity:0"/></radialGradient>
    </defs>
</svg>
